svg/person-add.svg

<?xml version="1.0" encoding="UTF-8" standalone="no"?>
<svg
   xmlns:dc="http://purl.org/dc/elements/1.1/"
   xmlns:cc="http://creativecommons.org/ns#"
   xmlns:rdf="http://www.w3.org/1999/02/22-rdf-syntax-ns#"
   xmlns:svg="http://www.w3.org/2000/svg"
   xmlns="http://www.w3.org/2000/svg"
   xmlns:sodipodi="http://sodipodi.sourceforge.net/DTD/sodipodi-0.dtd"
   xmlns:inkscape="http://www.inkscape.org/namespaces/inkscape"
   class="ionicon"
   viewBox="0 0 512 512"
   version="1.1"
   id="svg6"
   sodipodi:docname="person-add.svg"
   inkscape:version="1.0.2 (e86c8708, 2021-01-15)">
  <metadata
     id="metadata12">
    <rdf:RDF>
      <cc:Work
         rdf:about="">
        <dc:format>image/svg+xml</dc:format>
        <dc:type
           rdf:resource="http://purl.org/dc/dcmitype/StillImage" />
      </cc:Work>
    </rdf:RDF>
  </metadata>
  <defs
     id="defs10" />
  <sodipodi:namedview
     pagecolor="#ffffff"
     bordercolor="#666666"
     borderopacity="1"
     objecttolerance="10"
     gridtolerance="10"
     guidetolerance="10"
     inkscape:pageopacity="0"
     inkscape:pageshadow="2"
     inkscape:window-width="689"
     inkscape:window-height="480"
     id="namedview8"
     showgrid="false"
     inkscape:zoom="1.3027344"
     inkscape:cx="256"
     inkscape:cy="256"
     inkscape:window-x="44"
     inkscape:window-y="25"
     inkscape:window-maximized="0"
     inkscape:current-layer="svg6" />
  <title
     id="title2">Person Add</title>
  <path
     style="color:#000000;font-style:normal;font-variant:normal;font-weight:normal;font-stretch:normal;font-size:medium;line-height:normal;font-family:sans-serif;font-variant-ligatures:normal;font-variant-position:normal;font-variant-caps:normal;font-variant-numeric:normal;font-variant-alternates:normal;font-variant-east-asian:normal;font-feature-settings:normal;font-variation-settings:normal;text-indent:0;text-align:start;text-decoration:none;text-decoration-line:none;text-decoration-style:solid;text-decoration-color:#000000;letter-spacing:normal;word-spacing:normal;text-transform:none;writing-mode:lr-tb;direction:ltr;text-orientation:mixed;dominant-baseline:auto;baseline-shift:baseline;text-anchor:start;white-space:normal;shape-padding:0;shape-margin:0;inline-size:0;clip-rule:nonzero;display:inline;overflow:visible;visibility:visible;isolation:auto;mix-blend-mode:normal;color-interpolation:sRGB;color-interpolation-filters:linearRGB;solid-color:#000000;solid-opacity:1;vector-effect:none;fill:#000000;fill-opacity:1;fill-rule:nonzero;stroke-width:1;stroke-linecap:butt;stroke-linejoin:miter;stroke-miterlimit:4;stroke-dasharray:none;stroke-dashoffset:0;stroke-opacity:1;color-rendering:auto;image-rendering:auto;shape-rendering:auto;text-rendering:auto;enable-background:accumulate;stop-color:#000000;stop-opacity:1;stroke:none;opacity:1"
     d="m 288,256 c 52.79,0 99.43,-49.71 104,-110.82 2.27,-30.7 -7.36,-59.33 -27.12,-80.6 C 345.33,43.57 318,32 288,32 257.76,32 230.41,43.5 211,64.38 191.37,85.49 181.8,114.18 184,145.16 188.49,206.28 235.12,256 288,256 Z M 495.38,439.76 C 486.94,392.94 460.59,353.61 419.19,326.01 382.42,301.5 335.83,288 288,288 c -47.83,0 -94.42,13.5 -131.19,38 -41.4,27.6 -67.75,66.93 -76.19,113.75 -1.93,10.73 0.69,21.34 7.19,29.11 5.970849,7.17119 14.85933,11.26452 24.19,11.14 h 352 c 9.33599,0.13304 18.23277,-3.95706 24.21,-11.13 6.48,-7.77 9.1,-18.38 7.17,-29.11 z M 104,288 v -40 h 40 c 8.83656,0 15.99999,-7.16344 15.99999,-16 0,-8.83656 -7.16343,-16 -15.99999,-16 h -40 v -40 c 0,-8.83656 -7.163444,-15.99999 -16,-15.99999 -8.836556,0 -16,7.16343 -16,15.99999 v 40 H 32 c -8.836562,0 -15.999993,7.16344 -15.999993,16 0,8.83656 7.163431,16 15.999993,16 h 40 v 40 c 0,8.83656 7.163444,15.99999 16,15.99999 8.836556,0 16,-7.16343 16,-15.99999 z"
     id="path4" />
</svg>

<svg xmlns="http://www.w3.org/2000/svg" width="512" height="512" viewBox="0 0 512 512"><title>ionicons-v5-j</title><path d="M288,256c52.79,0,99.43-49.71,104-110.82,2.27-30.7-7.36-59.33-27.12-80.6C345.33,43.57,318,32,288,32c-30.24,0-57.59,11.5-77,32.38-19.63,21.11-29.2,49.8-27,80.78C188.49,206.28,235.12,256,288,256Z"/><path d="M495.38,439.76c-8.44-46.82-34.79-86.15-76.19-113.75C382.42,301.5,335.83,288,288,288s-94.42,13.5-131.19,38c-41.4,27.6-67.75,66.93-76.19,113.75-1.93,10.73.69,21.34,7.19,29.11A30.94,30.94,0,0,0,112,480H464a30.94,30.94,0,0,0,24.21-11.13C494.69,461.1,497.31,450.49,495.38,439.76Z"/><path d="M104,288V248h40a16,16,0,0,0,0-32H104V176a16,16,0,0,0-32,0v40H32a16,16,0,0,0,0,32H72v40a16,16,0,0,0,32,0Z"/></svg>
